images/icons/social/vk.svg

<svg width="18" height="10" viewBox="0 0 18 10" fill="none" xmlns="http://www.w3.org/2000/svg">
<path d="M10.7607 7.67458C11.3982 7.46854 12.2143 9.03484 13.0831 9.63429C13.7353 10.0884 14.2347 9.99036 14.2347 9.99036L16.5505 9.95702C16.5505 9.95702 17.7607 9.88233 17.1886 8.92082C17.1413 8.8408 16.8532 8.20802 15.4649 6.90577C14.0133 5.54351 14.21 5.76421 15.9577 3.4091C17.0226 1.97349 17.4486 1.09666 17.3153 0.723252C17.1873 0.36385 16.4051 0.457202 16.4051 0.457202L13.7959 0.475205C13.5419 0.475872 13.3265 0.554553 13.2285 0.818604C13.2265 0.821271 12.8144 1.92948 12.265 2.87166C11.1041 4.86471 10.6407 4.97073 10.4486 4.84604C10.0079 4.55732 10.1192 3.68782 10.1192 3.0697C10.1192 1.138 10.4073 0.332511 9.55514 0.124471C9.27042 0.0551248 9.06238 0.00978281 8.33624 0.00311487C7.40806 -0.0108878 6.61991 0.00311488 6.17316 0.22249C5.87643 0.371185 5.64906 0.697247 5.78708 0.715918C5.96045 0.739255 6.34919 0.822605 6.55723 1.10666C6.82462 1.47473 6.81661 2.29955 6.81661 2.29955C6.81661 2.29955 6.96931 4.57399 6.45655 4.85604C6.10448 5.04941 5.62305 4.65467 4.58752 2.84499C4.05875 1.91948 3.65934 0.896619 3.65934 0.896619C3.65934 0.896619 3.582 0.706583 3.44197 0.602563C3.27527 0.479206 3.04189 0.439865 3.04189 0.439865L0.565421 0.455868C0.565421 0.455868 0.19335 0.466537 0.0566573 0.630568C-0.0646992 0.775929 0.0466554 1.07599 0.0466554 1.07599C0.0466554 1.07599 1.98636 5.6642 4.18278 7.9753C6.1965 10.097 8.48493 9.95635 8.48493 9.95635H9.5218C9.5218 9.95635 9.83452 9.92034 9.99455 9.74831C10.1439 9.58828 10.1372 9.28755 10.1372 9.28755C10.1372 9.28755 10.1166 7.88129 10.7607 7.67458Z" fill="white"/>
</svg>

<svg width="18" height="10" fill="none" xmlns="http://www.w3.org/2000/svg"><path d="M10.76 7.67c.64-.2 1.45 1.36 2.32 1.96.66.46 1.15.36 1.15.36l2.32-.03s1.21-.08.64-1.04c-.05-.08-.34-.71-1.73-2.01-1.45-1.37-1.25-1.15.5-3.5 1.06-1.44 1.49-2.31 1.36-2.69-.13-.36-.91-.26-.91-.26L13.8.48c-.26 0-.47.07-.57.34 0 0-.42 1.1-.96 2.05-1.17 2-1.63 2.1-1.82 1.98-.44-.3-.33-1.16-.33-1.78 0-1.93.29-2.74-.56-2.95A4.4 4.4 0 0 0 8.34 0C7.4 0 6.62 0 6.17.22c-.3.15-.52.48-.38.5.17.02.56.1.77.39.26.36.26 1.19.26 1.19s.15 2.27-.36 2.56c-.36.19-.84-.2-1.87-2.02C4.06 1.92 3.66.9 3.66.9S3.58.7 3.44.6c-.16-.12-.4-.16-.4-.16L.57.46S.19.46.06.63c-.12.15-.01.45-.01.45s1.94 4.58 4.13 6.9c2.02 2.12 4.3 1.98 4.3 1.98h1.04s.31-.04.47-.21c.15-.16.15-.46.15-.46s-.02-1.4.62-1.62Z" fill="#fff"/></svg>
